X:1
T:Creeping and Crawling
M:3/4
L:1/4
K:F
 C| F F F| F2 F| F A c| d c A| G G G| G2 E| G c c|
M:4/4
 A F2 A|
M:3/4
 B d B| A c A| G F G/2G/2| G c A/2G/2| F F/2G/2 F/2E/2| D C C| F F G|\
 F2||
